!!!!SEGMENT: pl-kk--kk-i-389--007-007_anonim--missa-no-7-agnus.krn
!!!cenid: 17xx:2505
!!!COM: Anonim
!!!COM-rismID: pe30004985
!!!CDT:
!!!CNT:
!!!OPR: [Missa] No. 7.
!!!OTL: Agnus
!!!OMV: 007
!!!PDT:
!!!AGN: Sacred; Mass
!!!YEC: Copyright 2022 Narodowy Instytut Fryderyka Chopina (https://polishscores.org)
!!!YEM: License CC-BY-4.0 (https://creativecommons.org/licenses/by/4.0)
!!!SMS-siglum: PL-Kk
!!!SMS-shelfmark: Kk.I.389
!!!SMS-variant:
!!!SMS-altvar:
!!!SMS-shelfwork: 007-007 M
!!!NIFC-rismSourceID: 1001146182
!!!NIFC-rismChildID: 1001147245
!!!NIFC-islandoraID: pl-kk:6976
!!!URL-pdf-islandora: https://repozytorium.nifc.pl/islandora/object/pl-kk%3A6976/datastream/PDF/view
!!!URL-scan: https://polish.musicsources.pl/pl/lokalizacje/galeria/rekopisy/5999/1 @EN{Scan on Polish Music Sources Website} @PL{Skany w portalu Dziedzictwo Muzyki Polskiej w otwartym dostępie}
!!!IIIF:
!!!ONB-nifc: UWAGA: S – skan 12-13, A – 31-32, T – 50-51, B – 69-70. Części Mszy: Rorate, Kyrie, Gloria, Graduale, Sanctus, Benedictus, Agnus.
!!!AIN: 1 alto 1 bass 1 soprn 1 tenor
!!!key: C
**kern	**text	**kern	**text	**kern	**text	**kern	**text
*part4	*part4	*part3	*part3	*part2	*part2	*part1	*part1
*staff4	*staff4	*staff3	*staff3	*staff2	*staff2	*staff1	*staff1
*Ibass	*	*Itenor	*	*Ialto	*	*Isoprn	*
*I"Basso.	*	*I"Tenore.	*	*I"Alto.	*	*I"Soprano.	*
*I'B.	*	*I'T.	*	*I'A.	*	*I'S.	*
*I'bass	*	*I'tenor	*	*I'alto	*	*I'soprn	*
*I'Cvox	*	*I'Cvox	*	*I'Cvox	*	*I'Cvox	*
*clefF4	*	*clefC4	*	*clefC3	*	*clefC1	*
*k[]	*	*k[]	*	*k[]	*	*k[]	*
*C:	*	*C:	*	*C:	*	*C:	*
*M4/4	*	*M4/4	*	*M4/4	*	*M4/4	*
*met(C.|)	*	*met(C.|)	*	*met(C.|)	*	*met(C.|)	*
=1	=1	=1	=1	=1	=1	=1	=1
*	*	*	*	*	*	*all\right	*
4C\	A-	4c\	A-	4g\	A-	4ee\	A-
4D\	.	4B\	.	4f\	.	4dd\	.
4E\	.	4G/	.	4e\	.	4cc\	.
4G\	-gnus	4G/	-gnus	4d\	-gnus	4b\	-gnus
=2	=2	=2	=2	=2	=2	=2	=2
.	.	.	.	8qf/	.	.	.
4c\	De-	4G/	De-	4e\	De-	4cc\	De-
4G\	-i	4G/	-i	4d\	-i	4b\	-i
4r	.	4r	.	4r	.	4r	.
4G\	qui	4G/	qui-	8d\L	qui-	8b\L	qui-
.	.	.	.	8e\J	.	8cc\J	.
=3	=3	=3	=3	=3	=3	=3	=3
4G\	tol-	4B\	-tol-	8f\L	-tol-	8dd\L	-tol-
.	.	.	.	8e\J	.	8cc\J	.
8G\	-lis	8B\	-lis	8d\	-lis	8b\	-lis
8G\	pec-	8B\	pec-	8e\	pec-	8cc\	pec-
4B\	-ca-	4d\	-ca-	8f\L	-ca-	8dd\L	-ca-
.	.	.	.	8a\J	.	8ff\J	.
4G\	-ta	4B\	-ta	8g\L	-ta	8ee\L	-ta
.	.	.	.	8f\J	.	8dd\J	.
=4	=4	=4	=4	=4	=4	=4	=4
4c\	mun-	4G/	mun-	4f\	mun-	4dd\	mun-
4C/	-di	4G/	-di	4e\	-di	4cc\	-di
2r	.	2r	.	2r	.	2r	.
!	!	!	!	!	!	!LO:LB:g=original	!
=5	=5	=5	=5	=5	=5	=5	=5
2C/	mi-	2G/	mi-	4g\	mi-	4ee\	mi-
.	.	.	.	4e\	.	4cc\	.
*2\right	*	*	*	*	*	*2\right	*
!	!	!	!	!LO:LB:g=original	!	!	!
2E\	-se-	2G/	-se-	4c/	.	2cc\	-se-
.	.	.	.	4B-X/	-se-	.	.
=6	=6	=6	=6	=6	=6	=6	=6
*	*	*2\right	*	*	*	*	*
2.F\	-re-	2A\	-re-	4A/	-re-	2.cc\	-re-
.	.	.	.	4a\	.	.	.
.	.	2A\	-re	8g\L	.	.	.
.	.	.	.	8f\J	.	.	.
4F#X\	-re	.	.	8e\L	-re	4cc\	-re
.	.	.	.	8d\J	.	.	.
!LO:LB:g=original	!	!LO:LB:g=original	!	!	!	!	!
=7	=7	=7	=7	=7	=7	=7	=7
*	*	*	*	*2\right	*	*	*
2G\	no-	2G/	mi-	2c\	no-	2ee\	mi-
2G\	-bis,	2G/	-se-	2B/	-bis	2dd\	-se-
=8	=8	=8	=8	=8	=8	=8	=8
2G\	mi-	2G/	-re-	2d\	mi-	2b\	-re-
2c\	-se-	2G/	-re	2e\	-se-	2cc\	-re
=9	=9	=9	=9	=9	=9	=9	=9
2G\	-re-	2.G/	m	8g\L	-re-	8ee\L	mi-
.	.	.	.	8f\	.	8dd\	.
.	.	.	.	8e\	.	8cc\	.
.	.	.	.	8d\J	.	8dd\J	-se-
4C/	.	.	.	4e\	.	4cc\	-re-
4BB/	-re	4G/	.	4f\	-re	4dd\	-re
!!linebreak:original
=10	=10	=10	=10	=10	=10	=10	=10
4C\	no-	1G	no-	2e\	no-	2cc\	no-
4E\	.	.	.	.	.	.	.
4G\	.	.	.	2d\	.	2b\	.
4GG/	.	.	.	.	.	.	.
=11	=11	=11	=11	=11	=11	=11	=11
2C/	-bis	2G/	-bis	2e\	-bis	2cc\	-bis
2r	.	2r	.	2r	.	2r	.
!	!	!	!	!LO:LB:g=original	!	!	!
=12	=12	=12	=12	=12	=12	=12	=12
2G\	mi-	2G/	mi-	2d\	mi-	2b\	mi-
2c\	-se-	2G/	-se-	2e\	-se-	2cc\	-se-
!	!	!	!	!	!	!LO:LB:g=original	!
=13	=13	=13	=13	=13	=13	=13	=13
2G\	-re-	2.G/	-re-	8g\L	-re-	8ee\L	-re-
.	.	.	.	8f\	.	8dd\	.
.	.	.	.	8e\	.	8cc\	.
.	.	.	.	8d\J	.	8b\J	.
4BB/	.	.	.	4e\	.	4cc\	.
4AA/	-re	4G/	-re	4f\	-re	4dd\	-re
=14	=14	=14	=14	=14	=14	=14	=14
4C\	no-	1G	no	2e\	no-	2cc\	no-
4E\	.	.	.	.	.	.	.
4G\	.	.	.	2d\	.	2b\	.
4GG/	.	.	.	.	.	.	.
!LO:LB:g=original	!	!	!	!	!	!	!
=15	=15	=15	=15	=15	=15	=15	=15
1C	-bis.	2G/	bis	1e	-bis	2cc\	-bis
.	.	2r	.	.	.	2r	.
!	!	!LO:LB:g=original	!	!LO:LB:g=original	!	!	!
=16||	=16||	=16||	=16||	=16||	=16||	=16||	=16||
*M2/2	*	*M2/2	*	*M2/2	*	*M2/2	*
*met(C.|)	*	*met(C.|)	*	*met(C.|)	*	*met(C.|)	*
!	!	!	!	!LO:TX:a:t=Agnus	!	!	!
4c\	A-	2.G/	A-	2e\	A-	2.cc\	A-
4G\	.	.	.	.	.	.	.
4E\	.	.	.	4g\	.	.	.
4C/	-gnus	4G/	-gnus	4e\	-gnus	4cc\	-gnus
=17	=17	=17	=17	=17	=17	=17	=17
4G\	De-	4G/	De-	4e\	De-	4cc\	De-
4GG/	-i	4G/	-i	4d\	-i	4b\	-i
4r	.	4r	.	4r	.	4r	.
4G\	qui-	4B\	qui	4d\	qui-	4b\	qui-
=18	=18	=18	=18	=18	=18	=18	=18
4B\	-tol-	1B	tol-	1f	-tol-	1dd	-tol-
4G\	.	.	.	.	.	.	.
4A\	.	.	.	.	.	.	.
4B\	.	.	.	.	.	.	.
=19	=19	=19	=19	=19	=19	=19	=19
2c\	-lis	2G/	-lis	2e\	-lis	2cc\	-lis
4r	.	4r	.	4r	.	4r	.
4C/	pec-	4G/	pec-	4g\	pec-	4ee\	pec-
!	!	!	!	!	!	!LO:LB:g=original	!
=20	=20	=20	=20	=20	=20	=20	=20
2F\	-ca-	2B\	-ca-	2a\	-ca-	2cc\	-ca-
2E\	-ta	2c\	-ta	2g\	-ta	2cc\	-ta
!LO:LB:g=original	!	!	!	!	!	!	!
=21	=21	=21	=21	=21	=21	=21	=21
2D\	mun-	2G/	mun-	2f\	mun-	2b\	mun-
2C/	-di	2G/	-di	2e\	-di	2cc\	-di
=22	=22	=22	=22	=22	=22	=22	=22
1G	pec-	1G	mun-	1d	mun-	1b	mun-
=23	=23	=23	=23	=23	=23	=23	=23
4F#X\	-ca-	1A	.	1c	.	1cc	.
4D\	-ta	.	.	.	.	.	.
4E\	mun-	.	.	.	.	.	.
4F#\	.	.	.	.	.	.	.
=24	=24	=24	=24	=24	=24	=24	=24
1G	-di.	1G	-di.	1d	-di.	1b;	-di.
!LO:TX:t=Dona ut Kyrie	!	!LO:TX:t=Dona ut Kyrie	!	!LO:TX:t=Dona ut Kyrie	!	!LO:TX:t=Dona nobis ut Kyrie.	!
==	==	==	==	==	==	==	==
*-	*-	*-	*-	*-	*-	*-	*-
!!!system-decoration: [(s1,s2,s3,s4)]
!!!ENC: Berenika Jozajtis
!!!END: 2023-09-11
!!!ENC: Leszek Kubiak
!!!END: 2024-01-10
